source/images/svg/success.svg

<?xml version="1.0" encoding="UTF-8"?>
<svg width="102px" height="98px" viewBox="0 0 102 98" version="1.1" xmlns="http://www.w3.org/2000/svg" xmlns:xlink="http://www.w3.org/1999/xlink">
    <!-- Generator: Sketch 51.3 (57544) - http://www.bohemiancoding.com/sketch -->
    <g id="Page-1" stroke="none" stroke-width="1" fill="none" fill-rule="evenodd">
        <g id="icon">
            <path d="M10,46 L1,46 C1.99411255,46 2.8,45.1045695 2.8,44 C2.8,42.8954305 1.99411255,42 1,42 L10,42 C9.00588745,42 8.2,42.8954305 8.2,44 C8.2,45.1045695 9.00588745,46 10,46 Z" id="Combined-Shape-Copy-4" fill="#FFFFFF" transform="translate(5.500000, 44.000000) rotate(168.000000) translate(-5.500000, -44.000000) "></path>
            <path d="M32,30 L23,30 C23.9941125,30 24.8,29.1045695 24.8,28 C24.8,26.8954305 23.9941125,26 23,26 L32,26 C31.0058875,26 30.2,26.8954305 30.2,28 C30.2,29.1045695 31.0058875,30 32,30 Z" id="Combined-Shape-Copy-5" fill="#FFFFFF" transform="translate(27.500000, 28.000000) rotate(120.000000) translate(-27.500000, -28.000000) "></path>
            <path d="M66.4461854,38 C66.0693434,38 65.6953882,37.8535388 65.4142262,37.5605814 C64.8547542,36.986406 64.8634492,36.0577644 65.4316162,35.4894586 L69.536324,31.4145914 C70.1102993,30.8550726 71.03211,30.8609071 71.5857738,31.438035 C72.1452458,32.0122105 72.1365508,32.9408521 71.5683838,33.5091578 L67.463676,37.584025 C67.1795925,37.8623258 66.8114455,38 66.4461854,38 L66.4461854,38 Z" id="Path" fill="#FFE315"></path>
            <path d="M54.4053261,33 C54.0457535,33 53.6861473,32.8625458 53.4108389,32.5904309 C52.8630537,32.0434077 52.8630537,31.1541962 53.4108389,30.6071729 L65.6030054,18.4102674 C66.1507906,17.8632442 67.0413294,17.8632442 67.5891484,18.4102674 C68.1369674,18.9572907 68.1369337,19.8465022 67.5891484,20.3935254 L55.396982,32.5904309 C55.124505,32.8625457 54.7648987,33 54.4053261,33 L54.4053261,33 Z" id="Path" fill="#FFAF45"></path>
            <path d="M84,16.5 C84,13.4624339 81.5375661,11 78.5,11 C75.4624339,11 73,13.4624339 73,16.5 C73,19.5375661 75.4624339,22 78.5,22 C81.5375661,22 84,19.5375661 84,16.5 Z M74.5714286,16.5 C74.5714286,14.3303099 76.3303099,12.5714286 78.5,12.5714286 C80.6696901,12.5714286 82.4285714,14.3303099 82.4285714,16.5 C82.4285714,18.6696901 80.6696901,20.4285714 78.5,20.4285714 C76.3303099,20.4285714 74.5714286,18.6696901 74.5714286,16.5 Z" id="Oval-4" fill="#00B395" fill-rule="nonzero"></path>
            <path d="M10,35.5 C10,33.5670034 8.43299662,32 6.5,32 C4.56700338,32 3,33.5670034 3,35.5 C3,37.4329966 4.56700338,39 6.5,39 C8.43299662,39 10,37.4329966 10,35.5 Z M4,35.5 C4,34.1192881 5.11928813,33 6.5,33 C7.88071187,33 9,34.1192881 9,35.5 C9,36.8807119 7.88071187,38 6.5,38 C5.11928813,38 4,36.8807119 4,35.5 Z" id="Oval-4-Copy" fill="#16D1C4" fill-rule="nonzero"></path>
            <path d="M95.4,4.4 L95.4,1.09493732 C95.4,0.490220138 95.8882513,-4.17069269e-14 96.5,-4.17443857e-14 C97.1075132,-4.17815852e-14 97.6,0.501230836 97.6,1.09493732 L97.6,4.4 L100.905063,4.4 C101.50978,4.4 102,4.8882513 102,5.5 C102,6.10751322 101.498769,6.6 100.905063,6.6 L97.6,6.6 L97.6,9.90506268 C97.6,10.5097799 97.1117487,11 96.5,11 C95.8924868,11 95.4,10.4987692 95.4,9.90506268 L95.4,6.6 L92.0949373,6.6 C91.4902201,6.6 91,6.1117487 91,5.5 C91,4.89248678 91.5012308,4.4 92.0949373,4.4 L95.4,4.4 Z" id="Combined-Shape" fill="#B2DDC9"></path>
            <path d="M34.4,18.4 L34.4,15.0949373 C34.4,14.4902201 34.8882513,14 35.5,14 C36.1075132,14 36.6,14.5012308 36.6,15.0949373 L36.6,18.4 L39.9050627,18.4 C40.5097799,18.4 41,18.8882513 41,19.5 C41,20.1075132 40.4987692,20.6 39.9050627,20.6 L36.6,20.6 L36.6,23.9050627 C36.6,24.5097799 36.1117487,25 35.5,25 C34.8924868,25 34.4,24.4987692 34.4,23.9050627 L34.4,20.6 L31.0949373,20.6 C30.4902201,20.6 30,20.1117487 30,19.5 C30,18.8924868 30.5012308,18.4 31.0949373,18.4 L34.4,18.4 Z" id="Combined-Shape" fill="#F5B1AE"></path>
            <path d="M41.5001862,36 C24.6552449,36 11,49.6552449 11,66.5001862 C11,83.3447551 24.6552449,97 41.5001862,97 C58.3447551,97 72,83.3447551 72,66.5001862 C72,49.6552449 58.3447551,36 41.5001862,36 L41.5001862,36 L41.5001862,36 Z" id="Shape-Copy" fill="#00B395"></path>
            <path d="M61.7907087,74.0221992 C55.7195842,87.5141468 45.5314286,85.0929332 42,97 C59.1208139,97 73,83.3688459 73,66.5539946 C73,57.6118246 69.0749555,49.5701117 62.824656,44 C58.0728607,54.5155969 67.8618331,60.5302516 61.7907087,74.0221992 Z" id="Shape-Copy-2" fill="#008578" opacity="0.315613678"></path>
            <path d="M11.3504812,56.4972414 C12.2494903,53.5830215 13.5734966,50.8552594 15.2501227,48.3863326 C20.7364382,40.3074229 29.998438,35 40.5001862,35 C57.3447551,35 71,48.6552449 71,65.5001862 C71,71.4486557 69.2970959,76.9993944 66.352195,81.691495 M62.1832414,86.9497434 C61.1920084,87.9516991 60.1318254,88.8853063 59.010394,89.7428633 M53.4592684,93.1179567 C49.5261488,94.9667006 45.1338363,96 40.5001862,96 C23.6552449,96 10,82.3447551 10,65.5001862" id="Shape" stroke="#477CA8" stroke-width="4" stroke-linecap="round" stroke-linejoin="round"></path>
            <path d="M53.4181449,60.2435977 L37.5277346,75.4435385 C37.1400631,75.8145621 36.6316017,76 36.1232949,76 C35.6148335,76 35.1065783,75.8145621 34.7186491,75.4435385 L25.5817005,66.703559 C24.8060998,65.9615117 24.8060998,64.7584823 25.5817005,64.016583 C26.3574559,63.2744865 27.6151854,63.2744865 28.3909407,64.016583 L36.1232949,71.4129513 L50.6091109,57.5565724 C51.38466,56.8144759 52.6425957,56.8144759 53.4181449,57.5565724 C54.1939517,58.2984717 54.1939517,59.5015011 53.4181449,60.2435977 L53.4181449,60.2435977 L53.4181449,60.2435977 Z" id="Path" fill="#FFFFFF"></path>
        </g>
    </g>
</svg>

<?xml version="1.0" encoding="UTF-8"?>
<svg version="1.1" viewBox="0 0 102 98" xmlns="http://www.w3.org/2000/svg">
<g fill="none" fill-rule="evenodd">
<path transform="translate(5.5 44) rotate(168) translate(-5.5 -44)" d="m10 46h-9c0.99411 0 1.8-0.89543 1.8-2s-0.80589-2-1.8-2h9c-0.99411 0-1.8 0.89543-1.8 2s0.80589 2 1.8 2z" fill="#fff"/>
<path transform="translate(27.5 28) rotate(120) translate(-27.5 -28)" d="m32 30h-9c0.99411 0 1.8-0.89543 1.8-2s-0.80589-2-1.8-2h9c-0.99411 0-1.8 0.89543-1.8 2s0.80589 2 1.8 2z" fill="#fff"/>
<path d="m66.446 38c-0.37684 0-0.7508-0.14646-1.032-0.43942-0.55947-0.57418-0.55078-1.5028 0.01739-2.0711l4.1047-4.0749c0.57398-0.55952 1.4958-0.55368 2.0494 0.023444 0.55947 0.57418 0.55078 1.5028-0.01739 2.0711l-4.1047 4.0749c-0.28408 0.2783-0.65223 0.41598-1.0175 0.41598z" fill="#FFE315"/>
<path d="m54.405 33c-0.35957 0-0.71918-0.13745-0.99449-0.40957-0.54779-0.54702-0.54779-1.4362 0-1.9833l12.192-12.197c0.54779-0.54702 1.4383-0.54702 1.9861 0 0.54782 0.54702 0.54779 1.4362 0 1.9833l-12.192 12.197c-0.27248 0.27211-0.63208 0.40957-0.99166 0.40957z" fill="#FFAF45"/>
<path d="m84 16.5c0-3.0376-2.4624-5.5-5.5-5.5s-5.5 2.4624-5.5 5.5 2.4624 5.5 5.5 5.5 5.5-2.4624 5.5-5.5zm-9.4286 0c0-2.1697 1.7589-3.9286 3.9286-3.9286s3.9286 1.7589 3.9286 3.9286-1.7589 3.9286-3.9286 3.9286-3.9286-1.7589-3.9286-3.9286z" fill="#00B395" fill-rule="nonzero"/>
<path d="m10 35.5c0-1.933-1.567-3.5-3.5-3.5s-3.5 1.567-3.5 3.5 1.567 3.5 3.5 3.5 3.5-1.567 3.5-3.5zm-6 0c0-1.3807 1.1193-2.5 2.5-2.5s2.5 1.1193 2.5 2.5-1.1193 2.5-2.5 2.5-2.5-1.1193-2.5-2.5z" fill="#16D1C4" fill-rule="nonzero"/>
<path d="m95.4 4.4v-3.3051c0-0.60472 0.48825-1.0949 1.1-1.0949 0.60751-3.72e-17 1.1 0.50123 1.1 1.0949v3.3051h3.3051c0.60472 0 1.0949 0.48825 1.0949 1.1 0 0.60751-0.50123 1.1-1.0949 1.1h-3.3051v3.3051c0 0.60472-0.48825 1.0949-1.1 1.0949-0.60751 0-1.1-0.50123-1.1-1.0949v-3.3051h-3.3051c-0.60472 0-1.0949-0.48825-1.0949-1.1 0-0.60751 0.50123-1.1 1.0949-1.1h3.3051z" fill="#B2DDC9"/>
<path d="m34.4 18.4v-3.3051c0-0.60472 0.48825-1.0949 1.1-1.0949 0.60751 0 1.1 0.50123 1.1 1.0949v3.3051h3.3051c0.60472 0 1.0949 0.48825 1.0949 1.1 0 0.60751-0.50123 1.1-1.0949 1.1h-3.3051v3.3051c0 0.60472-0.48825 1.0949-1.1 1.0949-0.60751 0-1.1-0.50123-1.1-1.0949v-3.3051h-3.3051c-0.60472 0-1.0949-0.48825-1.0949-1.1 0-0.60751 0.50123-1.1 1.0949-1.1h3.3051z" fill="#F5B1AE"/>
<path d="m41.5 36c-16.845 0-30.5 13.655-30.5 30.5 0 16.845 13.655 30.5 30.5 30.5 16.845 0 30.5-13.655 30.5-30.5 0-16.845-13.655-30.5-30.5-30.5z" fill="#00B395"/>
<path d="m61.791 74.022c-6.0711 13.492-16.259 11.071-19.791 22.978 17.121 0 31-13.631 31-30.446 0-8.9422-3.925-16.984-10.175-22.554-4.7518 10.516 5.0372 16.53-1.0339 30.022z" fill="#008578" opacity=".31561"/>
<path d="m11.35 56.497c0.89901-2.9142 2.223-5.642 3.8996-8.1109 5.4863-8.0789 14.748-13.386 25.25-13.386 16.845 0 30.5 13.655 30.5 30.5 0 5.9485-1.7029 11.499-4.6478 16.191m-4.169 5.2582c-0.99123 1.002-2.0514 1.9356-3.1728 2.7931m-5.5511 3.3751c-3.9331 1.8487-8.3254 2.882-12.959 2.882-16.845 0-30.5-13.655-30.5-30.5" stroke="#477CA8" stroke-linecap="round" stroke-linejoin="round" stroke-width="4"/>
<path d="m53.418 60.244l-15.89 15.2c-0.38767 0.37102-0.89613 0.55646-1.4044 0.55646-0.50846 0-1.0167-0.18544-1.4046-0.55646l-9.1369-8.74c-0.7756-0.74205-0.7756-1.9451 0-2.687 0.77576-0.7421 2.0335-0.7421 2.8092 0l7.7324 7.3964 14.486-13.856c0.77555-0.7421 2.0335-0.7421 2.809 0 0.77581 0.7419 0.77581 1.9449 0 2.687z" fill="#fff"/>
</g>
</svg>
